X:1
P: Hine Ba
C: trad., arr. T. Traub 12-21-2003
M: 4/4
K: D
L: 1/4
Z: 65%
"D"A2 F>G|A2 D2 |"Em"E/F/G/A/ GF|"A"E4|"D"F/G/A/B/ A A|d2 A2|"G"G F/E/ "A"E > D|"D"D4|
